X:1
T:Title
%%score { ( 1 4 ) | ( 2 3 5 ) }
L:1/8
M:4/4
K:Ab
V:1 treble nm="Grand Piano"
V:4 treble 
V:2 bass 
V:3 bass 
V:5 bass 
V:1
 z4 z2[Q:1/4=100] [CE]2 | [CE]3 [CF] [CG][CA][Cc][CB] | [DA]4 GBAF | G6[K:bass][K:treble] z2 | %4
 [CE]6 z2 | [A,B,=D]3 [A,DF] [DA][Dc][DB][DF] | G2 A2 B2 G2 | [CEF]2 [C=EG]2 [CFA]2 [A,B,=D]2 | %8
 E8 | [Ec]4 [CE]3 [CA] | z4 [DG]4 | d4 G3 B | z4 [Ec]4 | [Ec]4 [CE]3 [EA] | [EG]FFF [Fd]3 [Fd] | %15
[M:17/16] cE/-E/-E-<E=D[Dc]B3/2A[Q:1/4=99][Q:1/4=97][Q:1/4=96][Q:1/4=94][Q:1/4=93][Q:1/4=91][Q:1/4=90][Q:1/4=88][Q:1/4=87][Q:1/4=85][Q:1/4=84][Q:1/4=82][Q:1/4=81][Q:1/4=79][Q:1/4=78][Q:1/4=76] | %16
[M:3/4] [CA]6 |] %17
V:2
 z4 z2 [A,,A,]2 | [A,,A,]3 [A,,A,] [A,,E,][A,,E,][A,,A,][A,,A,] | z4[K:treble] DGFD | %3
 D6[K:bass] z2 | A,,2 A,,2 A,,2 A,,2 | B,,3 B,, [B,,F,][B,,A,][B,,F,][B,,B,] | %6
 [E,B,E]2 [F,B,=D]2 [G,B,E]2 [E,B,E]2 | A,,2 G,,2 F,,2 B,,2 | z2 A,2 B,4 | %9
 [A,,A,]4 [A,,A,]3 [A,,A,] | z DDD E,E, E,2 | [E,B,E]4 [E,B,E]3 [E,G,D] | %12
 [A,,A,]2 [A,,A,]2 [A,,A,]A,, A,,2 | [A,,A,]4 [A,,A,]3 [C,A,] | %14
 [D,A,][D,A,D][D,A,D][D,A,D] [D,A,]3 [D,A,] | %15
[M:17/16] [E,A,E][E,A,C]/-[E,A,C]/-[E,A,C]-<[E,A,C][F,A,B,][B,,A,][E,G,D]3/2[E,C] | %16
[M:3/4] [A,,E,]6 |] %17
V:3
 x8 | x8 | [E,B,]6[K:treble] z2 | z[K:bass] E,E,E, z B,ED | x8 | x8 | x8 | x8 | E,8 | x8 | %10
 [E,B,]2 [E,B,]2 z4 | x8 | x8 | x8 | x8 |[M:17/16] x17/2 |[M:3/4] x6 |] %17
V:4
 x8 | x8 | x8 | z[K:bass] B,B,B, B,D[K:treble]GF | A,2 A,2 A,2 [A,CE]2 | x8 | x8 | x8 | %8
 [G,B,]2 C2 D4 | x8 | [DA]GGG B,B, B,2 | x8 | [DB][CA][CA][DB] z A, A,2 | x8 | x8 | %15
[M:17/16] x17/2 |[M:3/4] x6 |] %17
V:5
 x8 | x8 | x4[K:treble] x4 | z4[K:bass] E,2 [E,G,]2 | x8 | x8 | x8 | x8 | x8 | x8 | x8 | x8 | x8 | %13
 x8 | x8 |[M:17/16] x17/2 |[M:3/4] x6 |] %17

